src/assets/Unsupported.svg

<svg width="22" height="23" viewBox="0 0 22 23" fill="none" xmlns="http://www.w3.org/2000/svg">
<path fill-rule="evenodd" clip-rule="evenodd" d="M11 22.5C17.0751 22.5 22 17.5751 22 11.5C22 5.42487 17.0751 0.5 11 0.5C4.92487 0.5 0 5.42487 0 11.5C0 17.5751 4.92487 22.5 11 22.5ZM11.3667 13.832V14.1693H9.73867V13.832C9.73867 12.4973 10.56 11.808 11.3373 11.2067C11.9973 10.6787 12.5987 10.18 12.5987 9.32933C12.5987 8.332 11.9827 7.672 10.956 7.672C9.91467 7.672 9.196 8.44933 9.196 9.57867H7.33333C7.33333 7.48133 8.87333 6 11 6C13.1853 6 14.5053 7.26133 14.5053 9.212C14.5053 10.7813 13.4933 11.5293 12.6427 12.1307C11.924 12.644 11.3667 13.084 11.3667 13.832ZM11.8067 15.944C11.8067 16.56 11.264 17.1027 10.6187 17.1027C9.95867 17.1027 9.43067 16.5747 9.43067 15.944C9.43067 15.2987 9.95867 14.7707 10.6187 14.7707C11.264 14.7707 11.8067 15.2987 11.8067 15.944Z" fill="#9B9BA7"/>
</svg>

<svg xmlns="http://www.w3.org/2000/svg" width="22" height="23" fill="none"><path fill="#9B9BA7" fill-rule="evenodd" d="M11 22.5c6.075 0 11-4.925 11-11S17.075.5 11 .5 0 5.425 0 11.5s4.925 11 11 11m.367-8.668v.337H9.739v-.337c0-1.335.821-2.024 1.598-2.625.66-.528 1.262-1.027 1.262-1.878 0-.997-.616-1.657-1.643-1.657-1.041 0-1.76.777-1.76 1.907H7.333C7.333 7.48 8.873 6 11 6c2.185 0 3.505 1.261 3.505 3.212 0 1.57-1.012 2.317-1.862 2.919-.719.513-1.276.953-1.276 1.701m.44 2.112c0 .616-.543 1.159-1.188 1.159-.66 0-1.188-.528-1.188-1.159a1.18 1.18 0 0 1 1.188-1.173 1.19 1.19 0 0 1 1.188 1.173" clip-rule="evenodd"/></svg>
